src/assets/services/product.svg

<svg width="475" height="314" viewBox="0 0 475 314" fill="none" xmlns="http://www.w3.org/2000/svg">
<rect y="0.000244141" width="475" height="314" fill="white"/>
<path fill-rule="evenodd" clip-rule="evenodd" d="M236.61 50.2285C278.342 46.6317 323.683 13.0252 356.907 38.4154C390.467 64.0619 369.227 110.962 366.719 153C364.414 191.634 373.92 240.447 343.421 264.453C314.359 287.328 267.204 282.42 230.719 276C194.234 269.58 176.126 260.135 152.219 244C118.678 221.362 77.9425 198.034 71.9237 158.146C65.7767 117.409 91.2188 94.5 121.219 71.5C151.22 48.5 201.609 53.2453 236.61 50.2285Z" fill="#F5F6FF"/>
<path d="M140.825 183.735C142.377 184.32 144.13 183.574 144.775 182.043L172.041 117.031L162.348 113.363L139.011 179.806C138.447 181.398 139.253 183.131 140.825 183.735Z" fill="#364154"/>
<path d="M172.021 93.5531L178.007 95.8303L172.042 117.031L162.348 113.363L172.021 93.5531Z" fill="#131F2D"/>
<path d="M175.406 76.3831L187.216 80.8569C189.533 81.7235 190.097 84.7262 188.284 86.3989L187.095 88.2731C185.2 91.2355 182.54 93.6135 179.396 95.1652L178.026 95.8302L172.041 93.553L171.698 92.6864C170.388 89.462 169.985 85.9152 170.509 82.4691L170.932 79.7284C170.731 77.3101 173.129 75.5165 175.406 76.3831Z" fill="#131F2D"/>
<path d="M93.0833 237.603H161.017C162.71 237.603 164.101 236.233 164.101 234.52V194.457C164.101 192.764 162.73 191.374 161.017 191.374H93.0833C91.3905 191.374 90 192.744 90 194.457V234.52C90.0202 236.233 91.3905 237.603 93.0833 237.603Z" fill="#9DA8ED"/>
<path d="M90.0044 225.774H164.085V210.116H90.0044V225.774Z" fill="#4754C7"/>
<path d="M90.0044 204.328H164.085V201.688H90.0044V204.328Z" fill="#4754C7"/>
<path d="M294.669 222.61L325.704 209.551L297.41 116.205L247.714 137.103L294.669 222.61Z" fill="#FF64AE"/>
<path d="M296.665 183.937C305.532 180.209 309.703 169.992 305.975 161.105C302.247 152.238 292.03 148.066 283.142 151.794C274.275 155.522 270.104 165.74 273.832 174.627C277.56 183.494 287.798 187.666 296.665 183.937Z" fill="#C63CC0"/>
<path d="M257.026 147.031L298.243 129.689L297.36 127.59L256.143 144.932L257.026 147.031Z" fill="#A0462D"/>
<path d="M307.124 246.047L333.907 234.782C335.035 234.298 335.579 232.988 335.096 231.86L325.705 209.551L294.811 222.549L304.202 244.858C304.686 245.987 305.996 246.531 307.124 246.047Z" fill="#C63CC0"/>
<path d="M205.171 214.206L243.904 214.488C246.221 214.509 248.156 212.735 248.358 210.418L257.346 99.9618L193.644 99.4177L200.778 210.055C200.919 212.393 202.833 214.206 205.171 214.206Z" fill="#FFA9D6"/>
<path d="M224.881 186.275C236.267 186.376 245.557 177.226 245.658 165.84C245.759 154.454 236.61 145.164 225.223 145.063C213.837 144.962 204.547 154.112 204.446 165.498C204.345 176.884 213.495 186.194 224.881 186.275Z" fill="#FFD2EC"/>
<path d="M199.069 114.541L251.929 114.984L251.951 112.304L199.091 111.86L199.069 114.541Z" fill="#131F2D"/>
<path d="M198.978 136.867L251.838 137.31L251.948 124.251L199.088 123.808L198.978 136.867Z" fill="#FFD2EC"/>
<path d="M207.207 245.463L241.547 245.745C242.998 245.765 244.187 244.576 244.207 243.125L244.449 214.508L204.829 214.186L204.587 242.803C204.567 244.254 205.736 245.443 207.207 245.463Z" fill="#FFD2EC"/>
<path d="M345.071 245.926H386.001V92.062C386.001 90.5506 384.771 89.3414 383.28 89.3414H347.812C346.3 89.3414 345.091 90.5707 345.091 92.062V245.926H345.071Z" fill="#B2CBFD"/>
<path d="M359.278 90.994H373.284C373.889 90.994 374.352 90.5104 374.352 89.9259V69.0681C374.352 68.4635 373.869 68 373.284 68H359.278C358.674 68 358.21 68.4837 358.21 69.0681V89.9058C358.19 90.5104 358.674 90.994 359.278 90.994Z" fill="#1A51AA"/>
<path d="M345.065 223.311H375.878V134.821H345.065V223.311Z" fill="#1A51AA"/>
</svg>

<svg width="475" height="314" fill="none" xmlns="http://www.w3.org/2000/svg">
	<path fill="#fff" d="M0 0h475v314H0z"/>
	<path fill-rule="evenodd" clip-rule="evenodd" d="M236.61 50.228c41.732-3.596 87.073-37.203 120.297-11.813 33.56 25.647 12.32 72.547 9.812 114.585-2.305 38.634 7.201 87.447-23.298 111.453-29.062 22.875-76.217 17.967-112.702 11.547-36.485-6.42-54.593-15.865-78.5-32-33.541-22.638-74.276-45.966-80.295-85.854C65.777 117.409 91.219 94.5 121.219 71.5c30.001-23 80.39-18.255 115.391-21.272Z" fill="#F5F6FF"/>
	<path d="M140.825 183.735a3.105 3.105 0 0 0 3.95-1.692l27.266-65.012-9.693-3.668-23.337 66.443a3.094 3.094 0 0 0 1.814 3.929Z" fill="#364154"/>
	<path d="m172.021 93.553 5.986 2.277-5.965 21.201-9.694-3.668 9.673-19.81ZM175.406 76.383l11.81 4.474c2.317.867 2.881 3.87 1.068 5.542l-1.189 1.874a19.244 19.244 0 0 1-7.699 6.892l-1.37.665-5.985-2.277-.343-.867a19.438 19.438 0 0 1-1.189-10.217l.423-2.74c-.201-2.419 2.197-4.213 4.474-3.346Z" fill="#131F2D"/>
	<path d="M93.083 237.603h67.934a3.083 3.083 0 0 0 3.084-3.083v-40.063a3.083 3.083 0 0 0-3.084-3.083H93.083A3.083 3.083 0 0 0 90 194.457v40.063c.02 1.713 1.39 3.083 3.083 3.083Z" fill="#9DA8ED"/>
	<path d="M90.004 225.774h74.081v-15.658h-74.08v15.658ZM90.004 204.328h74.081v-2.64h-74.08v2.64Z" fill="#4754C7"/>
	<path d="m294.669 222.61 31.035-13.059-28.294-93.346-49.696 20.898 46.955 85.507Z" fill="#FF64AE"/>
	<path d="M296.665 183.937c8.867-3.728 13.038-13.945 9.31-22.832-3.728-8.867-13.945-13.039-22.833-9.311-8.867 3.728-13.038 13.946-9.31 22.833 3.728 8.867 13.966 13.039 22.833 9.31Z" fill="#C63CC0"/>
	<path d="m257.026 147.031 41.217-17.342-.883-2.099-41.217 17.342.883 2.099Z" fill="#A0462D"/>
	<path d="m307.124 246.047 26.783-11.265c1.128-.484 1.672-1.794 1.189-2.922l-9.391-22.309-30.894 12.998 9.391 22.309c.484 1.129 1.794 1.673 2.922 1.189Z" fill="#C63CC0"/>
	<path d="m205.171 214.206 38.733.282c2.317.021 4.252-1.753 4.454-4.07l8.988-110.456-63.702-.544 7.134 110.637a4.397 4.397 0 0 0 4.393 4.151Z" fill="#FFA9D6"/>
	<path d="M224.881 186.275c11.386.101 20.676-9.049 20.777-20.435.101-11.386-9.048-20.676-20.435-20.777-11.386-.101-20.676 9.049-20.777 20.435-.101 11.386 9.049 20.696 20.435 20.777Z" fill="#FFD2EC"/>
	<path d="m199.069 114.541 52.86.443.022-2.68-52.86-.444-.022 2.681Z" fill="#131F2D"/>
	<path d="m198.978 136.867 52.86.443.11-13.059-52.86-.443-.11 13.059ZM207.207 245.463l34.34.282c1.451.02 2.64-1.169 2.66-2.62l.242-28.617-39.62-.322-.242 28.617c-.02 1.451 1.149 2.64 2.62 2.66Z" fill="#FFD2EC"/>
	<path d="M345.071 245.926h40.93V92.062c0-1.511-1.23-2.72-2.721-2.72h-35.468a2.722 2.722 0 0 0-2.721 2.72v153.864h-.02Z" fill="#B2CBFD"/>
	<path d="M359.278 90.994h14.006c.605 0 1.068-.484 1.068-1.068V69.068c0-.605-.483-1.068-1.068-1.068h-14.006c-.604 0-1.068.484-1.068 1.068v20.838a1.055 1.055 0 0 0 1.068 1.088ZM345.065 223.311h30.813v-88.49h-30.813v88.49Z" fill="#1A51AA"/>
</svg>
